Lila_HD/emblems/scalable/emblem-downloads.svg

<?xml version="1.0" encoding="UTF-8" standalone="no"?>
<svg
   xmlns:dc="http://purl.org/dc/elements/1.1/"
   xmlns:cc="http://creativecommons.org/ns#"
   xmlns:rdf="http://www.w3.org/1999/02/22-rdf-syntax-ns#"
   xmlns:svg="http://www.w3.org/2000/svg"
   xmlns="http://www.w3.org/2000/svg"
   xmlns:xlink="http://www.w3.org/1999/xlink"
   xmlns:sodipodi="http://sodipodi.sourceforge.net/DTD/sodipodi-0.dtd"
   xmlns:inkscape="http://www.inkscape.org/namespaces/inkscape"
   sodipodi:docname="emblem-downloads.svg"
   inkscape:version="1.0beta2 (2b71d25d45, 2019-12-03)"
   id="svg1072"
   version="1.1"
   viewBox="0 0 32.000000 32.000000"
   height="32"
   width="32">
  <defs
     id="defs1066">
    <linearGradient
       inkscape:collect="always"
       xlink:href="#linearGradient6139-0"
       id="linearGradient4071"
       gradientUnits="userSpaceOnUse"
       gradientTransform="matrix(0.35751486,0,0,0.3575148,-1.5117588,-0.888173)"
       x1="6"
       y1="47.000011"
       x2="90"
       y2="47.000011" />
    <linearGradient
       id="linearGradient6139-0">
      <stop
         id="stop6141-2"
         offset="0"
         style="stop-color:#adb6c1;stop-opacity:1" />
      <stop
         style="stop-color:#ffffff;stop-opacity:1;"
         offset="0.25"
         id="stop6151-0" />
      <stop
         style="stop-color:#909faa;stop-opacity:1"
         offset="0.5"
         id="stop6147-1" />
      <stop
         id="stop6149-4"
         offset="0.75"
         style="stop-color:#fbf9f9;stop-opacity:1;" />
      <stop
         id="stop6143-4"
         offset="1"
         style="stop-color:#adb6c1;stop-opacity:1" />
    </linearGradient>
    <linearGradient
       gradientTransform="matrix(0.32291666,0,0,0.32291667,0.14895513,0.415026)"
       inkscape:collect="always"
       xlink:href="#linearGradient3832-0-6-1-1"
       id="linearGradient4129"
       x1="1.5"
       y1="88.171875"
       x2="94.5"
       y2="88.171875"
       gradientUnits="userSpaceOnUse" />
    <linearGradient
       id="linearGradient3832-0-6-1-1">
      <stop
         style="stop-color:#000000;stop-opacity:1;"
         offset="0"
         id="stop3834-6-3-7-1" />
      <stop
         id="stop3872-2-4"
         offset="0.1"
         style="stop-color:#000000;stop-opacity:0.58823532;" />
      <stop
         style="stop-color:#000000;stop-opacity:0.58823532;"
         offset="0.89999998"
         id="stop3844-6-2-7-6" />
      <stop
         style="stop-color:#000000;stop-opacity:1;"
         offset="1"
         id="stop3836-5-0-2-9" />
    </linearGradient>
    <radialGradient
       inkscape:collect="always"
       xlink:href="#linearGradient3737"
       id="radialGradient7462"
       gradientUnits="userSpaceOnUse"
       gradientTransform="matrix(0.31488694,0,0,0.0158845,11.095409,26.302189)"
       cx="13.948145"
       cy="44.892841"
       fx="13.948145"
       fy="44.892841"
       r="43.199203" />
    <linearGradient
       id="linearGradient3737">
      <stop
         offset="0"
         style="stop-color:#ffffff;stop-opacity:1"
         id="stop3739" />
      <stop
         offset="1"
         style="stop-color:#ffffff;stop-opacity:0"
         id="stop3741" />
    </linearGradient>
    <radialGradient
       inkscape:collect="always"
       xlink:href="#linearGradient3737"
       id="radialGradient7464"
       gradientUnits="userSpaceOnUse"
       gradientTransform="matrix(0.28685548,0,0,0.0158845,10.601268,-29.265803)"
       cx="13.948145"
       cy="44.892841"
       fx="13.948145"
       fy="44.892841"
       r="43.199203" />
    <linearGradient
       inkscape:collect="always"
       xlink:href="#linearGradient3737"
       id="linearGradient4767"
       gradientUnits="userSpaceOnUse"
       x1="2.7713892"
       y1="-28.64156"
       x2="50.527882"
       y2="14.514202" />
    <clipPath
       id="clipPath4156-4-1"
       clipPathUnits="userSpaceOnUse">
      <path
         inkscape:connector-curvature="0"
         id="path4158-0-8"
         d="m 27.046336,-55.695463 -14.21366,13.321486 h 0.06127 l 15.653407,21.770763 10.231384,-10.546177 C 38.561832,-32.30156 27.468089,-54.819245 27.046336,-55.695463 Z M 9.6468554,-39.382809 -5.2407289,-25.32124 15.987863,-7.8059573 26.372412,-18.382966 Z m 31.4906096,12.951445 -9.741259,9.713584 8.944804,12.4580526 7.780753,-7.5550056 z m -49.8397109,4.378822 -13.7541661,12.9822847 26.2830181,13.84571 0.06127,-0.0617 -0.122531,-0.0617 L 13.598503,-5.4007374 -8.7022409,-22.052595 Z m 38.0154159,7.400825 -9.802525,9.7752596 11.579232,9.5594001 7.62759,-7.40083 -8.669108,-11.0087257 z m 20.187073,5.6739697 -7.382526,7.2158 6.187844,8.54179 5.820249,-6.13651996 z m -32.195166,6.32154 -9.5574606,9.49772 13.6622686,7.1849703 7.933918,-7.6783603 z m 23.311629,2.37443004 -7.10683,6.93826996 8.362778,6.9074403 5.360756,-5.6739699 -0.06127,-0.0925 -0.0919,0.12335 -6.463539,-8.20258036 z m -8.730374,8.54178036 -7.505057,7.3391599 10.353916,5.45811 c 1.397496,-1.32103 5.67514,-6.12292 5.850882,-6.32154 z"
         style="opacity:0.6;fill:#ffffff;fill-opacity:1;stroke:none" />
    </clipPath>
    <inkscape:perspective
       sodipodi:type="inkscape:persp3d"
       inkscape:vp_x="0 : 526.18109 : 1"
       inkscape:vp_y="0 : 1000 : 0"
       inkscape:vp_z="744.09448 : 526.18109 : 1"
       inkscape:persp3d-origin="372.04724 : 350.78739 : 1"
       id="perspective10" />
    <inkscape:perspective
       id="perspective2820"
       inkscape:persp3d-origin="0.5 : 0.33333333 : 1"
       inkscape:vp_z="1 : 0.5 : 1"
       inkscape:vp_y="0 : 1000 : 0"
       inkscape:vp_x="0 : 0.5 : 1"
       sodipodi:type="inkscape:persp3d" />
    <linearGradient
       gradientTransform="matrix(2.7635381,0,0,3.2231205,15.340206,14)"
       gradientUnits="userSpaceOnUse"
       xlink:href="#linearGradient3832-0-6-1-1"
       id="linearGradient3090"
       y2="3.1025834"
       x2="10.008834"
       y1="16.75395"
       x1="10.008834" />
    <linearGradient
       id="linearGradient3608">
      <stop
         offset="0"
         style="stop-color:#4f7724;stop-opacity:1"
         id="stop3610" />
      <stop
         offset="1"
         style="stop-color:#94c351;stop-opacity:1"
         id="stop3612" />
    </linearGradient>
  </defs>
  <sodipodi:namedview
     inkscape:document-rotation="0"
     inkscape:window-maximized="1"
     inkscape:window-y="21"
     inkscape:window-x="0"
     inkscape:window-height="1029"
     inkscape:window-width="1920"
     inkscape:lockguides="true"
     units="px"
     inkscape:showpageshadow="false"
     showgrid="false"
     inkscape:current-layer="g2574"
     inkscape:document-units="px"
     inkscape:cy="45.250717"
     inkscape:cx="-46.940225"
     inkscape:zoom="3.4170834"
     inkscape:pageshadow="2"
     inkscape:pageopacity="0.0"
     borderopacity="1.0"
     bordercolor="#666666"
     pagecolor="#ffffff"
     id="base">
    <sodipodi:guide
       inkscape:locked="true"
       id="guide1621"
       orientation="0,96"
       position="0,0" />
    <sodipodi:guide
       inkscape:locked="true"
       id="guide1623"
       orientation="-96,0"
       position="96.000002,0" />
    <sodipodi:guide
       inkscape:locked="true"
       id="guide1625"
       orientation="0,-96"
       position="96.000002,96.000002" />
    <sodipodi:guide
       inkscape:locked="true"
       id="guide1627"
       orientation="96,0"
       position="0,96.000002" />
  </sodipodi:namedview>
  <metadata
     id="metadata1069">
    <rdf:RDF>
      <cc:Work
         rdf:about="">
        <dc:format>image/svg+xml</dc:format>
        <dc:type
           rdf:resource="http://purl.org/dc/dcmitype/StillImage" />
        <dc:title />
        <dc:date>2017</dc:date>
        <dc:creator>
          <cc:Agent>
            <dc:title>Cristian Pozzessere &quot;ilnanny&quot;</dc:title>
          </cc:Agent>
        </dc:creator>
        <dc:subject>
          <rdf:Bag>
            <rdf:li>Global language</rdf:li>
          </rdf:Bag>
        </dc:subject>
        <dc:description>Playing with Inkscape on Gnu/Linux O. S.</dc:description>
        <dc:contributor>
          <cc:Agent>
            <dc:title>In the night, alone like a dog.</dc:title>
          </cc:Agent>
        </dc:contributor>
        <cc:license
           rdf:resource="http://creativecommons.org/licenses/by-sa/4.0/" />
      </cc:Work>
      <cc:License
         rdf:about="http://creativecommons.org/licenses/by-sa/4.0/">
        <cc:permits
           rdf:resource="http://creativecommons.org/ns#Reproduction" />
        <cc:permits
           rdf:resource="http://creativecommons.org/ns#Distribution" />
        <cc:requires
           rdf:resource="http://creativecommons.org/ns#Notice" />
        <cc:requires
           rdf:resource="http://creativecommons.org/ns#Attribution" />
        <cc:permits
           rdf:resource="http://creativecommons.org/ns#DerivativeWorks" />
        <cc:requires
           rdf:resource="http://creativecommons.org/ns#ShareAlike" />
      </cc:License>
    </rdf:RDF>
  </metadata>
  <g
     transform="translate(0,-1026.5197)"
     id="layer1"
     inkscape:groupmode="layer"
     inkscape:label="Livello 1">
    <g
       id="g2574"
       style="display:inline"
       transform="translate(-0.14895645,1026.1047)">
      <g
         transform="translate(0.5000005,0.499974)"
         id="g67">
        <path
           inkscape:connector-curvature="0"
           id="path3288"
           d="M 28.934669,0.415026 H 2.3632391 c -1.2267113,0 -2.2142832,0.9875712 -2.2142832,2.2142848 V 29.200741 c 0,1.226714 0.9875719,2.214285 2.2142832,2.214285 H 28.934669 c 1.226714,0 2.214287,-0.987571 2.214287,-2.214285 V 2.6293108 c 0,-1.2267136 -0.987573,-2.2142848 -2.214287,-2.2142848 z"
           style="display:inline;opacity:0.15;fill:#000000;fill-opacity:1;fill-rule:nonzero;stroke:none;stroke-width:0.322917" />
        <path
           style="display:inline;opacity:0.15;fill:#000000;fill-opacity:1;fill-rule:nonzero;stroke:none;stroke-width:0.322917"
           d="M 28.72708,0.6572135 H 2.570828 c -1.2075442,0 -2.17968518,0.9721403 -2.17968518,2.1796865 v 26.156251 c 0,1.207547 0.97214098,2.179687 2.17968518,2.179687 H 28.72708 c 1.207548,0 2.179688,-0.97214 2.179688,-2.179687 V 2.8369 c 0,-1.2075462 -0.97214,-2.1796865 -2.179688,-2.1796865 z"
           id="path4085"
           inkscape:connector-curvature="0" />
        <path
           inkscape:connector-curvature="0"
           id="rect4251-1"
           d="M 28.519489,0.899401 H 2.7784195 c -1.1883795,0 -2.14508906,0.9567094 -2.14508906,2.1450886 V 28.785562 c 0,1.18838 0.95670956,2.145089 2.14508906,2.145089 H 28.519489 c 1.18838,0 2.145089,-0.956709 2.145089,-2.145089 V 3.0444896 c 0,-1.1883792 -0.956709,-2.1450886 -2.145089,-2.1450886 z"
           style="display:inline;fill:url(#linearGradient4071);fill-opacity:1;fill-rule:nonzero;stroke:none;stroke-width:0.322917" />
        <path
           sodipodi:nodetypes="sscccsccscccsss"
           inkscape:connector-curvature="0"
           id="path3400-6"
           d="m 3.7789561,2.4775407 c -0.9224103,0 -1.6546664,0.7389554 -1.6546664,1.669803 v 6.9192453 2.337724 12.88879 c 0.354317,0.543948 0.9586906,0.907955 1.6546664,0.907955 h 1.3237333 21.1797326 1.323733 c 0.695976,0 1.300349,-0.364007 1.654666,-0.907955 V 13.404313 11.066589 4.1473437 c 0,-0.9308476 -0.732256,-1.669803 -1.654666,-1.669803 z"
           style="display:inline;opacity:0.778646;fill:#f3f4f5;fill-opacity:1;fill-rule:nonzero;stroke:none;stroke-width:0.332444" />
        <path
           style="color:#000000;font-style:normal;font-variant:normal;font-weight:normal;font-stretch:normal;font-size:medium;line-height:normal;font-family:Sans;-inkscape-font-specification:Sans;text-indent:0;text-align:start;text-decoration:none;text-decoration-line:none;letter-spacing:normal;word-spacing:normal;text-transform:none;writing-mode:lr-tb;direction:ltr;baseline-shift:baseline;text-anchor:start;display:inline;overflow:visible;visibility:visible;fill:#5f5e5e;fill-opacity:1;stroke:none;stroke-width:0.767091;marker:none;enable-background:accumulate"
           d="m 3.3216374,1.9422477 c -1.0064089,0 -1.8302804,0.8200502 -1.8302804,1.8231889 V 26.136456 c 0,1.003139 0.8238715,1.823189 1.8302804,1.823189 H 28.118984 c 1.006409,0 1.830282,-0.82005 1.830282,-1.823189 V 3.7654366 c 0,-1.0031384 -0.823873,-1.8231889 -1.830282,-1.8231889 z m 0,0.7489856 H 28.118984 c 0.609699,0 1.082424,0.4779473 1.082424,1.0742033 V 26.136456 c 0,0.596257 -0.472725,1.074203 -1.082424,1.074203 H 3.3216374 c -0.6096987,0 -1.0824238,-0.477946 -1.0824238,-1.074203 V 3.7654366 c 0,-0.596256 0.4727251,-1.0742033 1.0824238,-1.0742033 z"
           id="path4989"
           inkscape:connector-curvature="0" />
        <path
           id="path4118"
           d="m 0.63333012,26.843737 v 1.9375 c 0,1.188379 0.96103438,2.149414 2.14941388,2.149414 h 25.732422 c 1.188379,0 2.149415,-0.961035 2.149415,-2.149414 v -1.9375 c 0,1.188379 -0.961036,2.149414 -2.149415,2.149414 H 2.782744 c -1.1883795,0 -2.14941388,-0.961035 -2.14941388,-2.149414 z"
           style="display:inline;opacity:0.658182;fill:url(#linearGradient4129);fill-opacity:1;fill-rule:nonzero;stroke:none;stroke-width:0.322917"
           inkscape:connector-curvature="0" />
        <rect
           ry="1.3723959"
           rx="0"
           y="26.32909"
           x="1.8846323"
           height="1.3723959"
           width="27.20573"
           id="rect4131"
           style="opacity:0.55;fill:url(#radialGradient7462);fill-opacity:1;stroke:none;stroke-width:0.322917" />
        <rect
           transform="rotate(90)"
           style="opacity:0.669;fill:url(#radialGradient7464);fill-opacity:1;stroke:none;stroke-width:0.322917"
           id="rect4141"
           width="24.783854"
           height="1.3723959"
           x="2.2104416"
           y="-29.238905"
           rx="0"
           ry="1.3723959" />
        <g
           transform="matrix(-0.39862289,0,0,-0.45296748,34.268593,62.669773)"
           id="layer4">
          <g
             id="g871"
             transform="translate(-1.2900948,56.718791)">
            <path
               style="display:inline;fill:url(#linearGradient3090);fill-opacity:1;stroke:none"
               id="Symbol"
               inkscape:connector-curvature="0"
               d="M 38.092783,68 V 49.90625 H 27 L 48,24 69,49.90625 H 58 V 68 Z" />
            <path
               style="display:inline;opacity:0.997;fill:#000000;fill-opacity:1;stroke:none"
               id="path3958"
               inkscape:connector-curvature="0"
               d="m 27.8125,49.90625 -0.8125,1 h 11.09375 v -1 z m 30.1875,0 v 1 h 11 l -0.8125,-1 z M 38.09375,68 v 1 H 58 v -1 z" />
            <path
               style="display:inline;opacity:0.365;fill:#000000;fill-opacity:1;stroke:#010406;stroke-width:0.759934;stroke-miterlimit:4;stroke-dasharray:none;stroke-opacity:1"
               id="path3967"
               inkscape:connector-curvature="0"
               d="M 48,24 27,49.90625 h 0.8125 L 48,25 68.1875,49.90625 H 69 Z" />
          </g>
        </g>
        <rect
           clip-path="url(#clipPath4156-4-1)"
           ry="3.9569881"
           rx="3.9569874"
           y="-30"
           x="2"
           height="69.024437"
           width="75.965775"
           id="rect4146"
           style="opacity:0.393;fill:url(#linearGradient4767);fill-opacity:1;stroke:none"
           transform="matrix(0.34527706,0,0,0.33831427,1.5359554,12.840532)" />
      </g>
    </g>
  </g>
</svg>

<?xml version="1.0" encoding="UTF-8"?>
<svg version="1.1" viewBox="0 0 32 32" xmlns="http://www.w3.org/2000/svg" xmlns:cc="http://creativecommons.org/ns#" xmlns:dc="http://purl.org/dc/elements/1.1/" xmlns:rdf="http://www.w3.org/1999/02/22-rdf-syntax-ns#" xmlns:xlink="http://www.w3.org/1999/xlink">
<defs>
<linearGradient id="linearGradient4071" x1="6" x2="90" y1="47" y2="47" gradientTransform="matrix(.35751 0 0 .35751 -1.5118 -.88817)" gradientUnits="userSpaceOnUse">
<stop stop-color="#adb6c1" offset="0"/>
<stop stop-color="#fff" offset=".25"/>
<stop stop-color="#909faa" offset=".5"/>
<stop stop-color="#fbf9f9" offset=".75"/>
<stop stop-color="#adb6c1" offset="1"/>
</linearGradient>
<linearGradient id="linearGradient4129" x1="1.5" x2="94.5" y1="88.172" y2="88.172" gradientTransform="matrix(.32292 0 0 .32292 .14896 .41503)" gradientUnits="userSpaceOnUse" xlink:href="#linearGradient3832-0-6-1-1"/>
<linearGradient id="linearGradient3832-0-6-1-1">
<stop offset="0"/>
<stop stop-opacity=".58824" offset=".1"/>
<stop stop-opacity=".58824" offset=".9"/>
<stop offset="1"/>
</linearGradient>
<radialGradient id="radialGradient7462" cx="13.948" cy="44.893" r="43.199" gradientTransform="matrix(.31489 0 0 .015884 11.095 26.302)" gradientUnits="userSpaceOnUse" xlink:href="#linearGradient3737"/>
<linearGradient id="linearGradient3737">
<stop stop-color="#fff" offset="0"/>
<stop stop-color="#fff" stop-opacity="0" offset="1"/>
</linearGradient>
<radialGradient id="radialGradient7464" cx="13.948" cy="44.893" r="43.199" gradientTransform="matrix(.28686 0 0 .015884 10.601 -29.266)" gradientUnits="userSpaceOnUse" xlink:href="#linearGradient3737"/>
<linearGradient id="linearGradient4767" x1="2.7714" x2="50.528" y1="-28.642" y2="14.514" gradientUnits="userSpaceOnUse" xlink:href="#linearGradient3737"/>
<clipPath id="clipPath4156-4-1">
<path d="m27.046-55.695-14.214 13.321h0.06127l15.653 21.771 10.231-10.546c-0.2169-1.1522-11.311-23.67-11.732-24.546zm-17.399 16.313-14.888 14.062 21.229 17.515 10.385-10.577zm31.491 12.951-9.7413 9.7136 8.9448 12.458 7.7808-7.555zm-49.84 4.3788-13.754 12.982 26.283 13.846 0.06127-0.0617-0.12253-0.0617 9.8332-10.053-22.301-16.652zm38.015 7.4008-9.8025 9.7753 11.579 9.5594 7.6276-7.4008-8.6691-11.009zm20.187 5.674-7.3825 7.2158 6.1878 8.5418 5.8202-6.1365zm-32.195 6.3215-9.5575 9.4977 13.662 7.185 7.9339-7.6784zm23.312 2.3744-7.1068 6.9383 8.3628 6.9074 5.3608-5.674-0.06127-0.0925-0.0919 0.12335-6.4635-8.2026zm-8.7304 8.5418-7.5051 7.3392 10.354 5.4581c1.3975-1.321 5.6751-6.1229 5.8509-6.3215z" fill="#fff" opacity=".6"/>
</clipPath>
<linearGradient id="linearGradient3090" x1="10.009" x2="10.009" y1="16.754" y2="3.1026" gradientTransform="matrix(2.7635 0 0 3.2231 15.34 14)" gradientUnits="userSpaceOnUse" xlink:href="#linearGradient3832-0-6-1-1"/>
</defs>
<metadata>
<rdf:RDF>
<cc:Work rdf:about="">
<dc:format>image/svg+xml</dc:format>
<dc:type rdf:resource="http://purl.org/dc/dcmitype/StillImage"/>
<dc:title/>
<dc:date>2017</dc:date>
<dc:creator>
<cc:Agent>
<dc:title>Cristian Pozzessere "ilnanny"</dc:title>
</cc:Agent>
</dc:creator>
<dc:subject>
<rdf:Bag>
<rdf:li>Global language</rdf:li>
</rdf:Bag>
</dc:subject>
<dc:description>Playing with Inkscape on Gnu/Linux O. S.</dc:description>
<dc:contributor>
<cc:Agent>
<dc:title>In the night, alone like a dog.</dc:title>
</cc:Agent>
</dc:contributor>
<cc:license rdf:resource="http://creativecommons.org/licenses/by-sa/4.0/"/>
</cc:Work>
<cc:License rdf:about="http://creativecommons.org/licenses/by-sa/4.0/">
<cc:permits rdf:resource="http://creativecommons.org/ns#Reproduction"/>
<cc:permits rdf:resource="http://creativecommons.org/ns#Distribution"/>
<cc:requires rdf:resource="http://creativecommons.org/ns#Notice"/>
<cc:requires rdf:resource="http://creativecommons.org/ns#Attribution"/>
<cc:permits rdf:resource="http://creativecommons.org/ns#DerivativeWorks"/>
<cc:requires rdf:resource="http://creativecommons.org/ns#ShareAlike"/>
</cc:License>
</rdf:RDF>
</metadata>
<g transform="translate(0 -1026.5)">
<g transform="translate(-.14896 1026.1)">
<g transform="translate(.5 .49997)">
<path d="m28.935 0.41503h-26.571c-1.2267 0-2.2143 0.98757-2.2143 2.2143v26.571c0 1.2267 0.98757 2.2143 2.2143 2.2143h26.571c1.2267 0 2.2143-0.98757 2.2143-2.2143v-26.571c0-1.2267-0.98757-2.2143-2.2143-2.2143z" opacity=".15"/>
<path d="m28.727 0.65721h-26.156c-1.2075 0-2.1797 0.97214-2.1797 2.1797v26.156c0 1.2075 0.97214 2.1797 2.1797 2.1797h26.156c1.2075 0 2.1797-0.97214 2.1797-2.1797v-26.156c0-1.2075-0.97214-2.1797-2.1797-2.1797z" opacity=".15"/>
<path d="m28.519 0.8994h-25.741c-1.1884 0-2.1451 0.95671-2.1451 2.1451v25.741c0 1.1884 0.95671 2.1451 2.1451 2.1451h25.741c1.1884 0 2.1451-0.95671 2.1451-2.1451v-25.741c0-1.1884-0.95671-2.1451-2.1451-2.1451z" fill="url(#linearGradient4071)"/>
<path d="m3.779 2.4775c-0.92241 0-1.6547 0.73896-1.6547 1.6698v22.146c0.35432 0.54395 0.95869 0.90796 1.6547 0.90796h23.827c0.69598 0 1.3003-0.36401 1.6547-0.90796v-22.146c0-0.93085-0.73226-1.6698-1.6547-1.6698z" fill="#f3f4f5" opacity=".77865"/>
<path d="m3.3216 1.9422c-1.0064 0-1.8303 0.82005-1.8303 1.8232v22.371c0 1.0031 0.82387 1.8232 1.8303 1.8232h24.797c1.0064 0 1.8303-0.82005 1.8303-1.8232v-22.371c0-1.0031-0.82387-1.8232-1.8303-1.8232zm0 0.74899h24.797c0.6097 0 1.0824 0.47795 1.0824 1.0742v22.371c0 0.59626-0.47272 1.0742-1.0824 1.0742h-24.797c-0.6097 0-1.0824-0.47795-1.0824-1.0742v-22.371c0-0.59626 0.47273-1.0742 1.0824-1.0742z" color="#000000" fill="#5f5e5e" style="text-decoration-line:none;text-indent:0;text-transform:none"/>
<path d="m0.63333 26.844v1.9375c0 1.1884 0.96103 2.1494 2.1494 2.1494h25.732c1.1884 0 2.1494-0.96104 2.1494-2.1494v-1.9375c0 1.1884-0.96104 2.1494-2.1494 2.1494h-25.732c-1.1884 0-2.1494-0.96104-2.1494-2.1494z" fill="url(#linearGradient4129)" opacity=".65818"/>
<rect x="1.8846" y="26.329" width="27.206" height="1.3724" rx="0" ry="1.3724" fill="url(#radialGradient7462)" opacity=".55"/>
<rect transform="rotate(90)" x="2.2104" y="-29.239" width="24.784" height="1.3724" rx="0" ry="1.3724" fill="url(#radialGradient7464)" opacity=".669"/>
<g transform="matrix(-.39862 0 0 -.45297 34.269 62.67)">
<g transform="translate(-1.2901 56.719)">
<path d="m38.093 68v-18.094h-11.093l21-25.906 21 25.906h-11v18.094z" fill="url(#linearGradient3090)"/>
<path d="m27.812 49.906-0.8125 1h11.094v-1zm30.188 0v1h11l-0.8125-1zm-19.906 18.094v1h19.906v-1z" opacity=".997"/>
<path d="m48 24-21 25.906h0.8125l20.188-24.906 20.188 24.906h0.8125z" opacity=".365" stroke="#010406" stroke-width=".75993"/>
</g>
</g>
<rect transform="matrix(.34528 0 0 .33831 1.536 12.841)" x="2" y="-30" width="75.966" height="69.024" rx="3.957" ry="3.957" clip-path="url(#clipPath4156-4-1)" fill="url(#linearGradient4767)" opacity=".393"/>
</g>
</g>
</g>
</svg>
